icons/hotel-fill.svg

<svg xmlns="http://www.w3.org/2000/svg" width="24" height="24" fill="none"><g clip-path="url(#a)"><g><path fill="#121212" d="M17 19H19V11H13V19H15V13H17V19ZM3 19V4C3 3.73478 3.10536 3.48043 3.29289 3.29289C3.48043 3.10536 3.73478 3 4 3H18C18.2652 3 18.5196 3.10536 18.7071 3.29289C18.8946 3.48043 19 3.73478 19 4V9H21V19H22V21H2V19H3ZM7 11V13H9V11H7ZM7 15V17H9V15H7ZM7 7V9H9V7H7Z"/></g></g><defs><clipPath id="a"><rect width="24" height="24" fill="white"/></clipPath></defs></svg>

<svg width="24" height="24" fill="none" xmlns="http://www.w3.org/2000/svg"><g clip-path="url(#a)"><path d="M17 19h2v-8h-6v8h2v-6h2v6ZM3 19V4a1 1 0 0 1 1-1h14a1 1 0 0 1 1 1v5h2v10h1v2H2v-2h1Zm4-8v2h2v-2H7Zm0 4v2h2v-2H7Zm0-8v2h2V7H7Z" /></g><defs><clipPath id="a"><path fill="#fff" d="M0 0h24v24H0z"/></clipPath></defs></svg>
